X:147
T:I Come, O Savior, To Thy Table
%%stretchlast false
M:4/4
L:1/4
K:Bb clef=C1
"^I"[B,,D] "^I¹"[D,F,FB] "^V7³"[E,F,EA] "^vi¹"[B,,B,DG] | "^vi7"[G,,B,DF] "^ii7"[C,B,CG]/ [C,B,G]/ "^V"[F,,G,A,E] "^i"[B,,F,B,F] | "^I"[B,,F,B,D]/ "^ii7³"[B,,E,B,C]/ "^I"[B,,D,B,] [B,,D,B,] "^iii¹"[F,,F,A,D] | "^iii7"[D,F,A,C] "^v"[C,F,CF] "^♯iv"[G,,G,D=E] "^i"[A,,B,FB]/ [B,,B,FB]/ | "^V²"[C,CFA]/ "^vii¹"[C,C=EA]/ "^v"[F,,CFG] "^V"[F,,A,F] "^Imaj7"[B,,A,DF] | "^iii"[D,F] "^iv"[E,F,EB] "^Imaj7"[B,,F,DA] "^vi"[G,,B,DG] | "^i"[C,B,CF]/ [C,B,F]/ "^vi"[F,,A,B,G] "^IV²"[B,,G,B,E] "^i"[B,,F,B,F] | "^I"[B,,F,B,D]/ "^ii7³"[B,,E,B,C]/ "^I"[B,,D,B,] "^Imaj7²"[F,,D,A,B,] "^iii"[D,F,A,D] | "^v"[C,F,C] "^vi7"[G,,F,DF] "^V"[A,,G,=EF]/ "^♭v°²"[B,,G,=EF]/ [C,B,FB]/ "^V/V"[C,B,=EB]/ | "^V"[F,,CFA] [F,,CFG] [F,A,CF] "^Imaj7¹"[D,A,B,F] | "^I"[B,,D] "^V"[E,A,B,F] "^I¹"[D,F,=B,B] "^i"[C,F,CB]/ "^I¹"[D,F,CB]/ | "^II¹"[=E,G,CG] "^v"[F,CG] [=E,F,Cc]/ [F,Cc]/ [F,G,Cc] | "^Imaj7¹"[D,F,B,A] "^V²"[C,F,CA] "^Imaj7¹"[D,F,B,A]/ "^V"[E,F,B,A]/ "^i7²"[F,A,B] | "^IVmaj7³"[D,G,B,E] "^iii"[E,F,CD] "^v"[F,C] "^I"[B,,F,DB] | "^vi¹"[B,,G,DB] "^V"[F,A] "^i"[F,B]2 |]
